X: 32
T: No_39_The_Butterfly_You_Painted_Has_Flown_Away.krn
N: Derived from No_39_The_Butterfly_You_Painted_Has_Flown_Away.krn
%%abc-version 2.0
%%abcx-abcm2ps-target-version 5.9.1 (29 Sep 2008)
%%abc-creator hum2abc beta
%%abcx-conversion-date 2019/03/15 08:25:35
%%humdrum-veritas 3374996668
%%humdrum-veritas-data 3064750468
%%linebreak <none>
%%barnumbers 0
L: 1/8
M: 2/4
K: F clef=bass
[K:clef=bass][M:2/4]DCC2 | 
DC CB, | 
B,/G,3/-G,2 | 
G,3/G,/G,2 | 
F,2G,2 | 
F,2F,2 | 
A,G,G,2 | 
A,2G,2 | 
A,/G,3/-G,2 | 
G,3/G,/G,2 | 
F,2F,2 | 
[M:3/4]A,/G,3/ G,/F,3/E,2 | 
[M:2/4]F,F,F,2 | 
[M:3/4]A,/G,3/ G,/F,3/E,2 | 
[M:2/4]F,F, F, z | 
[M:3/4]A,/G,3/ G,/F,3/E,2 | 
[M:2/4]F,F,F,2 | 
A,A,G,2 | 
A,2A,2 | 
G,3/F,/G,2 | 
F,2F,2 | 
A,2A,/G,3/ | 
(3A,G,G,G,2 | 
F,2F, z | 
[M:3/4]G,2G,/F,3/E,2 | 
[M:2/4]F,F,F,2 | 
[M:3/4]A,/G,3/ G,/F,3/E,2 | 
[M:2/4]F,F,F,2 | 
A,A,G,2 | 
A,2A,2 | 
G,3/F,/G,2 | 
F,2F,3/F,/ | 
[M:3/4]G,2G,3/F,/ E,3/E,/ | 
[M:2/4]F,F,F,2 | 
[M:3/4]F,2z2F,2 | 
[M:2/4]CCC2 | 
C2C2 | 
A,/G,3/-G,2 | 
G,G,G,2 | 
F,2G,2 | 
F,2F, z | 
G,2G,2 | 
A,2G,2 | 
A,/G,3/-G,2 | 
G,G,G,2 | 
F,2F,2 | 
[M:3/4]A,/G,3/ G,/F,3/E,2 | 
[M:2/4]F,F,F,2 | 
[M:3/4]A,/G,3/ G,/F,3/E,2 | 
[M:2/4]F,F, F, z | 
[M:3/4]A,/G,3/ G,/F,3/E,2 | 
[M:2/4]F,F,F,2 | 
A,A,G,2 | 
A,2A,2 | 
G,3/F,/G,2 | 
F,2F, z | 
A,2A,G, | 
(3A,G,G,G,2 | 
F,2F, z | 
[M:3/4]G,2G,3/F,/E,2 | 
[M:2/4]F,F,F,2 | 
A,A,G,2 | 
A,2A,2 | 
G,3/F,/G,2 | 
F,2F,3/F,/ | 
[M:3/4]G,2G,3/F,/ E,3/E,/ | 
[M:2/4]F,F,F,2 | 
z4 ]|:  
G,F,F,2 | 
F,2E2 | 
F2FE | 
F2F2 | 
F2(3FDC | 
[M:3/4]C2C2C2 | 
[M:2/4]A2G2 | 
G2F2 | 
G2F2 | 
D2C2 | 
DDC2 | 
C/C3/A,2 | 
(3A,G,G,G,2 | 
F,2F, z | 
G,2G,/G,3/ | 
F,2F,2 | 
C2A,2 | 
G,2A,2 | 
A,G,G,2 | 
G,2A,2 | 
(3A,G,G, G,F, | 
G,F,F,2 | 
F,2F,3/F,/ | 
G,2F,2 | 
z2F,F, :|]  
[M:3/4]G,3/G,/ F, z F,3/F,/ | 
[M:2/4]G,F, F,3/G,/ | 
F2F2 | 
F2G2 | 
GFD2 | 
C2C2 | 
CG, G,G, | 
B,2B,2 | 
B,2C2 | 
(3CB,B,G,2 | 
[M:3/4]G,2G,F, F, z | 
[M:2/4]F,2F,2 | 
F,2F,3/F,/ | 
G,G,F,2 | 
G,F, G,F, |]  



